public/rise.svg

<svg width="74" height="74" fill="none" xmlns="http://www.w3.org/2000/svg"><defs><clipPath id="a"><path fill="#fff" fill-opacity="0" d="M0 0h74v74H0z"/></clipPath></defs><g clip-path="url(#a)"><path d="m62.08 18.5-12.35 1.48a.482.482 0 0 0-.4.33.5.5 0 0 0-.02.27c.02.09.07.17.13.24l3.68 3.54-13.98 14.01-6.32-6.32a.986.986 0 0 0-.7-.28.986.986 0 0 0-.7.28L11.49 51.98c-.04.05-.08.1-.1.17-.03.06-.04.12-.04.19 0 .06.01.13.04.19.02.06.06.11.1.16l2.8 2.81c.05.04.1.07.16.1a.582.582 0 0 0 .37 0c.06-.03.11-.06.16-.1l17.15-17.13 6.29 6.29c.1.09.21.16.33.2.12.05.24.07.37.07s.26-.02.38-.07c.12-.04.23-.11.32-.2l16.81-16.81 3.68 3.67c.06.07.14.11.23.13.1.02.19.02.28-.01.09-.03.16-.08.22-.16.06-.07.1-.15.11-.25l1.48-12.34a.636.636 0 0 0-.06-.18c-.04-.05-.08-.1-.13-.13a.417.417 0 0 0-.18-.08.278.278 0 0 0-.18 0z" fill="#16C784"/></g></svg>

<svg width="74.000000" height="74.000000" viewBox="0 0 74 74" fill="none" xmlns="http://www.w3.org/2000/svg" xmlns:xlink="http://www.w3.org/1999/xlink">
	<desc>
			Created with Pixso.
	</desc>
	<defs>
		<clipPath id="clip9_1556">
			<rect id="svg" width="74.000000" height="74.000000" fill="white" fill-opacity="0"/>
		</clipPath>
	</defs>
	<g clip-path="url(#clip9_1556)">
		<path id="path" d="M62.08 18.5L49.73 19.98C49.64 19.99 49.56 20.03 49.48 20.09C49.41 20.15 49.36 20.22 49.33 20.31C49.3 20.4 49.29 20.49 49.31 20.58C49.33 20.67 49.38 20.75 49.44 20.82L53.12 24.36L39.14 38.37L32.82 32.05C32.73 31.96 32.62 31.89 32.5 31.84C32.38 31.79 32.25 31.77 32.12 31.77C31.99 31.77 31.86 31.79 31.74 31.84C31.62 31.89 31.51 31.96 31.42 32.05L11.49 51.98C11.45 52.03 11.41 52.08 11.39 52.15C11.36 52.21 11.35 52.27 11.35 52.34C11.35 52.4 11.36 52.47 11.39 52.53C11.41 52.59 11.45 52.64 11.49 52.69L14.29 55.5C14.34 55.54 14.39 55.57 14.45 55.6C14.51 55.62 14.57 55.63 14.64 55.63C14.7 55.63 14.76 55.62 14.82 55.6C14.88 55.57 14.93 55.54 14.98 55.5L32.13 38.37L38.42 44.66C38.52 44.75 38.63 44.82 38.75 44.86C38.87 44.91 38.99 44.93 39.12 44.93C39.25 44.93 39.38 44.91 39.5 44.86C39.62 44.82 39.73 44.75 39.82 44.66L56.63 27.85L60.31 31.52C60.37 31.59 60.45 31.63 60.54 31.65C60.64 31.67 60.73 31.67 60.82 31.64C60.91 31.61 60.98 31.56 61.04 31.48C61.1 31.41 61.14 31.33 61.15 31.23L62.63 18.89C62.62 18.83 62.6 18.77 62.57 18.71C62.53 18.66 62.49 18.61 62.44 18.58C62.38 18.54 62.33 18.51 62.26 18.5C62.2 18.48 62.14 18.48 62.08 18.5Z" fill="#16C784" fill-opacity="1.000000" fill-rule="nonzero"/>
	</g>
</svg>
